X:1
T:Lady O' The Dainty Doon-By
M:4/4
L:1/8
K:G
 EE| B,2 EE E2 GA| B2 B2 A2 FF| DD DD D2 A2| EF ED B,2| D2| EE FF D2 A2|\
 BB dd F2 GA|B-^c deB-AG-F| E4 E2||
